X: 7
T: Garry Owen
C: trad.
O: arr. by Tom Morley
R: jig, march
S: Fiddle Hell Online 2021-11-04
Z: 2022 John Chambers <jc:trillian.mit.edu>
M: 6/8
L: 1/8
K: G
vguf |\
"G"edc BAG | (BcB) Bgf | edc BAG | "D"(ABA) Agf |\
"G"edc BAG | (BcB) (B2d) | def gdB | "D"(ABA) A :|
|: Bc |\
"G"(vd2B) (d2B) | (d2B) dgf | "C"(e2c) (e2c) | (e2c) (e2f) |\
"G"vg2ua vb2ua | gfe (d2B) | def gdB | "D"(ABA) ["most"A :|["last" "G"G :|


